X:33
T:Sailor's Jacket
S:Trad, arr. Paddy O'Brien 
R:reel
E:9
I:speed 350
M:C|
K:DMix
dfec ~A2AB|cdef gfge|dfec~A2AB|cBcG ED D2:|\
c|~d2fd adfd|~c2 ec gcec|~d2 fd adfd|eaag edd^c|\
defg afge|cdef ~g2fg|afge ~f2ed|eaag ed d2||**

Sailors Jacket: O'Brien writes this in 2 sharps, with all C naturals.
(\mulooseness FMD = 0 MD = 0 SJ = 0)

\vfill\eject

